!!!COM: Bach, Johann Sebastian
!!!CDT: 1685/3//-1750/7/28/
!!!OTL@@DE: Herr Christ, der ein'ge Gott's Sohn
!!!AGN: 4-Part Chorale
!!!SCT: BH 101
!!!SCT: BWV 164
**harm	**root	**kern	**kern	**kern	**kern
*	*Iorgan	*Iorgan	*Iorgan	*Iorgan	*Iorgan
!	!	!bass	!tenor	!alto	!soprno
*M4/4	*M4/4	*M4/4	*M4/4	*M4/4	*M4/4
*met(c)	*met(c)	*met(c)	*met(c)	*met(c)	*met(c)
*MM60	*MM60	*MM60	*MM60	*MM60	*MM60
*k[b-]	*k[b-]	*k[b-]	*k[b-]	*k[b-]	*k[b-]
*F:	*F:	*F:	*F:	*F:	*F:
*>[A,A,B]	*>[A,A,B]	*>[A,A,B]	*>[A,A,B]	*>[A,A,B]	*>[A,A,B]
*>A	*>A	*>A	*>A	*>A	*>A
I	4BB-	4F	4A	4c	4f
=1	=1	=1	=1	=1	=1
IV	4EE-	4BB-	4B-	8d	8f
.	.	.	.	8e	8g
I	4BB-	4FF	4c	4f	4a
V	4FF	4C	8c	4e	4g
.	.	.	8B-	.	.
vi	4GG	4D	4A	4d	4f
=2	=2	=2	=2	=2	=2
viio7b	4AA	4GG	4B-	4d	2e
V/vi	4DD	4AA	8A	4c#	.
.	.	.	8G	.	.
IV;	4EE-;	4BB-;	4F;	4d;	4d;
vi	4GG	4D	4F	4d	4a
=3	=3	=3	=3	=3	=3
ii7	4CC	4GG	4F	4d	4b-
V	4FF	8C	4E	4c	4g
.	.	8BB-	.	.	.
Ib	4BB-	8AA	4F	4c	4a
.	.	8BB-	.	.	.
V	4FF	4C	8F	4c	4g
.	.	.	8E	.	.
=4	=4	=4	=4	=4	=4
I;	2.BB-;	2.FF;	2.A;	2.c;	2.f;
*>B	*>B	*>B	*>B	*>B	*>B
=:|!	=:|!	=:|!	=:|!	=:|!	=:|!
I	4BB-	4FF	8A	4c	8f
.	.	.	8B-	.	8g
!!linebreak: 2
=5	=5	=5	=5	=5	=5
I	4BB-	8F	4c	4f	4a
.	.	8E	.	.	.
vi	4GG	8D	4d	8f	4a
.	.	8C	.	8e	.
IV	4EE-	8BB-	8d	4d	4b-
.	.	8AA	8c	.	.
ii	4CC	8GG	8B-	4d	4b-
.	.	8FF	8A	.	.
=6	=6	=6	=6	=6	=6
Vb	4FF	4EE	4G	2c	4cc
I	4BB-	4FF	4F	.	8b-
.	.	.	.	.	8a
V;	4FF;	4CC;	4E;	4c;	4g;
Vb	4FF	4EE	4G	4c	4cc
=7	=7	=7	=7	=7	=7
I	4BB-	8FF	4F	4c	4a
.	.	8GG	.	.	.
Ib	4BB-	8AA	4F	4c	4a
.	.	8BB-	.	.	.
V	8FF	8C	4E	8c	4g
viioD7/vi	8FF#	8C#	.	8B-	.
vi	8GG	8D	8E	4A	4f
vib	8GG	8FF	8D	.	.
=8	=8	=8	=8	=8	=8
viio7b	4AA	8GG	4D	8B-	2e
.	.	8EE	.	8G	.
V/vi	4DD	4AA	4C#	4A	.
vi;	4GG;	4DD;	4F;	4A;	4d;
V/ii	4GG	4D	4F#	4d	4a
=9	=9	=9	=9	=9	=9
ii	4CC	8G	8G	4d	4b-
.	.	8F	8A	.	.
V7b	4FF	8E	8B-	4c	4g
.	.	8C	8E	.	.
I	4BB-	8F	4Fy	8c	4a
.	.	8BB-	.	8d	.
V	4FF	8C	8c	4e	4g
.	.	8CC	8B-	.	.
=10	=10	=10	=10	=10	=10
I;	2.BB-;	2.FF;	2.A;	2.c;	2.f;
==	==	==	==	==	==
*-	*-	*-	*-	*-	*-
!!chor2scor: -l 2 -s 0.6 -o %b.pmx
!!!YEC: Copyright 1994, David Huron
!!!YEC: Changes/Additions 2001 by Craig Stuart Sapp
!!!YEN: United States of America
!!!SMA: 371 Bach Chorales, edited by Ludwig Erk, C.F. Peters
!!!PDT: 1850, 1865
!!!ONB: Harmony and Root analysis done manually
